48x48/apps/gnome-chess.svg

<svg xmlns="http://www.w3.org/2000/svg" width="48" height="48" version="1">
 <path style="opacity:0.2" d="M 15.0031,5 14.9969,8.4443449 6,15.519215 7.7480023,19.056651 12.021592,17.689993 c 0.68054,0.867914 1.715492,1.373902 2.81042,1.374015 1.881586,-0.0022 3.079404,-1.575 3.212988,-3.473671 v -0.0015 3.467804 c -0.0026,1.725524 -0.193689,3.358383 -1.853371,3.753831 -1.480834,0.352999 -1.951506,-0.106867 -3.730788,0.627056 -2.7040677,1.115596 -4.4701021,3.15385 -4.47047,6.108539 L 11,35 h 14 l 3.999974,-5.3776 V 18.463063 c 0,-5.91273 -4.736903,-10.4261259 -10.580015,-10.4261259 -0.06256,0.0026 -0.12512,0.00559 -0.187679,0.00931 C 18.24158,7.753192 18.21389,7.9606308 18.14985,7.6746752 17.795831,6.1118718 16.58771,5.0029789 15.0031,5 Z"/>
 <path style="fill:#5e576c" d="M 15.0031,4 14.9969,7.4443449 6,14.519215 7.7480023,18.056651 12.021592,16.689993 c 0.68054,0.867914 1.715492,1.373902 2.81042,1.374015 1.881586,-0.0022 3.079404,-1.575 3.212988,-3.473671 v -0.0015 3.467804 c -0.0026,1.725524 -0.193689,3.358383 -1.853371,3.753831 -1.480834,0.352999 -1.951506,-0.106867 -3.730788,0.627056 -2.7040677,1.115596 -4.4701021,3.15385 -4.47047,6.108539 L 11,34 h 14 l 3.999974,-5.3776 V 17.463063 c 0,-5.91273 -4.736903,-10.4261259 -10.580015,-10.4261259 -0.06256,0.0026 -0.12512,0.00559 -0.187679,0.00931 C 18.24158,6.753192 18.21389,6.9606308 18.14985,6.6746752 17.795831,5.1118718 16.58771,4.0029789 15.0031,4 Z"/>
 <path style="fill:#f4f4f7;opacity:0.1" d="M 15.003906 4 L 14.996094 7.4453125 L 6 14.519531 L 6.3554688 15.240234 L 14.996094 8.4453125 L 15.003906 5 C 16.588516 5.0029789 17.796372 6.1110247 18.150391 7.6738281 C 18.214431 7.9597837 18.241722 7.7538199 18.232422 8.046875 C 18.294981 8.043155 18.357362 8.0397094 18.419922 8.0371094 C 24.263034 8.0371094 29 12.550161 29 18.462891 L 29 17.462891 C 29 11.550161 24.263034 7.0371094 18.419922 7.0371094 C 18.357362 7.0397094 18.294981 7.043155 18.232422 7.046875 C 18.241722 6.7538199 18.214431 6.9597837 18.150391 6.6738281 C 17.796372 5.1110247 16.588516 4.0029789 15.003906 4 z M 18.044922 18.056641 C 18.042322 19.782165 17.851088 21.415099 16.191406 21.810547 C 14.710572 22.163546 14.24022 21.703577 12.460938 22.4375 C 9.7568698 23.553096 7.9906023 25.592186 7.9902344 28.546875 L 8.0585938 28.669922 C 8.3767821 26.188088 10.034851 24.438411 12.460938 23.4375 C 14.24022 22.703577 14.710572 23.163546 16.191406 22.810547 C 17.851088 22.415099 18.042322 20.782165 18.044922 19.056641 L 18.044922 18.056641 z"/>
 <path style="opacity:0.2" d="M 10.053293,34 C 8.6265669,34 7,35.729821 7,37 h 23 c 0,-1.270179 -1.626567,-3 -3.053293,-3 z"/>
 <path style="fill:#756a89" d="M 10.053293,33 C 8.6265669,33 7,34.729821 7,36 h 23 c 0,-1.270179 -1.626567,-3 -3.053293,-3 z"/>
 <path style="fill:#f4f4f7;opacity:0.1" d="M 10.052734 33 C 8.6260083 33 7 34.70443 7 35.974609 L 7.2773438 35.974609 C 7.8012564 34.959021 8.9821001 34 10.052734 34 L 26.947266 34 C 28.018723 34 29.201309 34.976152 29.724609 36 L 30 36 C 30 34.729821 28.373992 33 26.947266 33 L 10.052734 33 z"/>
 <path style="fill:#cccccc" d="M 32,27 24,43 H 40 Z"/>
 <path style="opacity:0.2" d="M 24.655037,42 C 23.414406,42 22,43.729821 22,45 h 20 c 0,-1.270179 -1.414406,-3 -2.655037,-3 z"/>
 <path style="fill:#f4f4f7" d="M 24.655037,41 C 23.414406,41 22,42.729821 22,44 h 20 c 0,-1.270179 -1.414406,-3 -2.655037,-3 z"/>
 <circle style="opacity:0.2" cx="32" cy="25" r="7"/>
 <circle style="fill:#f4f4f7" cx="32" cy="24" r="7"/>
 <path style="fill:#f4f4f7;opacity:0.2" d="M 24.654297 41 C 23.413666 41 22 42.70443 22 43.974609 L 22.240234 43.974609 C 22.695797 42.958999 23.723292 42 24.654297 42 L 39.345703 42 C 40.277421 42 41.306687 42.976133 41.761719 44 L 42 44 C 42 42.729821 40.586334 41 39.345703 41 L 24.654297 41 z"/>
 <path style="opacity:0.2;fill:#f4f4f7" d="M 32 17 A 7 7 0 0 0 25 24 A 7 7 0 0 0 25.023438 24.541016 A 7 7 0 0 1 32 18 A 7 7 0 0 1 38.976562 24.458984 A 7 7 0 0 0 39 24 A 7 7 0 0 0 32 17 z"/>
</svg>

<svg xmlns="http://www.w3.org/2000/svg" width="48" height="48" version="1"><path style="opacity:.2" d="m15.003 5-.006 3.444L6 15.52l1.748 3.538 4.274-1.367a3.573 3.573 0 0 0 2.81 1.374c1.882-.002 3.08-1.575 3.213-3.474v-.001 3.468c-.003 1.725-.194 3.358-1.853 3.753-1.481.353-1.952-.106-3.731.628-2.704 1.115-4.47 3.153-4.47 6.108L11 35h14l4-5.378V18.463c0-5.913-4.737-10.426-10.58-10.426l-.188.01c.01-.294-.018-.086-.082-.372-.354-1.563-1.562-2.672-3.147-2.675z"/><path style="fill:#5e576c" d="m15.003 4-.006 3.444L6 14.52l1.748 3.538 4.274-1.367a3.573 3.573 0 0 0 2.81 1.374c1.882-.002 3.08-1.575 3.213-3.474v-.001 3.468c-.003 1.725-.194 3.358-1.853 3.753-1.481.353-1.952-.106-3.731.628-2.704 1.115-4.47 3.153-4.47 6.108L11 34h14l4-5.378V17.463c0-5.913-4.737-10.426-10.58-10.426l-.188.01c.01-.294-.018-.086-.082-.372-.354-1.563-1.562-2.672-3.147-2.675z"/><path style="fill:#f4f4f7;opacity:.1" d="m15.004 4-.008 3.445L6 14.52l.355.72 8.641-6.795L15.004 5c1.585.003 2.792 1.111 3.146 2.674.064.286.092.08.082.373l.188-.01C24.263 8.037 29 12.55 29 18.463v-1c0-5.913-4.737-10.426-10.58-10.426l-.188.01c.01-.293-.018-.087-.082-.373C17.796 5.11 16.59 4.003 15.004 4zm3.04 14.057c-.002 1.725-.193 3.358-1.853 3.754-1.48.353-1.95-.107-3.73.627-2.704 1.115-4.47 3.154-4.47 6.109l.068.123c.318-2.482 1.976-4.232 4.402-5.233 1.78-.733 2.25-.273 3.73-.626 1.66-.396 1.851-2.029 1.854-3.754v-1z"/><path style="opacity:.2" d="M10.053 34C8.627 34 7 35.73 7 37h23c0-1.27-1.627-3-3.053-3z"/><path style="fill:#756a89" d="M10.053 33C8.627 33 7 34.73 7 36h23c0-1.27-1.627-3-3.053-3z"/><path style="fill:#f4f4f7;opacity:.1" d="M10.053 33C8.626 33 7 34.704 7 35.975h.277C7.801 34.959 8.982 34 10.053 34h16.894c1.072 0 2.254.976 2.778 2H30c0-1.27-1.626-3-3.053-3H10.053z"/><path style="fill:#ccc" d="m32 27-8 16h16z"/><path style="opacity:.2" d="M24.655 42C23.415 42 22 43.73 22 45h20c0-1.27-1.414-3-2.655-3z"/><path style="fill:#f4f4f7" d="M24.655 41C23.415 41 22 42.73 22 44h20c0-1.27-1.414-3-2.655-3z"/><circle style="opacity:.2" cx="32" cy="25" r="7"/><circle style="fill:#f4f4f7" cx="32" cy="24" r="7"/><path style="fill:#f4f4f7;opacity:.2" d="M24.654 41C23.414 41 22 42.704 22 43.975h.24C22.696 42.959 23.723 42 24.654 42h14.692c.931 0 1.96.976 2.416 2H42c0-1.27-1.414-3-2.654-3H24.654z"/><path style="opacity:.2;fill:#f4f4f7" d="M32 17a7 7 0 0 0-7 7 7 7 0 0 0 .023.541A7 7 0 0 1 32 18a7 7 0 0 1 6.977 6.459A7 7 0 0 0 39 24a7 7 0 0 0-7-7z"/></svg>
